X:796
T:Saitheadh a' Bh\'aid
T:Launching the Boat
R:reel
C:Francie Dearg O'Beirn
Z:id:hn-reel-796
M:C|
K:D
defd AGFA|BE~E2 BAFA|d2fd AGFD|~E3F GABc|
d2fd AGFA|BE~E2 BAFG|A2FA DAFA|EDCD EDD2:|
|:fd~d2 fdge|fdfg afgf|eggf gagf|eg~g2 bgag|
fd~d2 edef|d2fd AGFG|A2FA DAFA|EDCD EDD2:|
